X:1
T:Title
%%score ( 1 2 ) ( 3 4 )
L:1/8
Q:1/4=90
M:4/4
K:D
V:1 treble nm="Midi_20"
V:2 treble 
V:3 bass nm="Midi_20"
V:4 bass 
V:1
"^Christchurch (88. 88. 88)""^F. A. Gore Ouseley\n(1825-89)" D2 | D2 F2 A2 B2 | A2 F2 E2 || A2 | %4
 A2 G2 F2 B2 | ^G2 G2 F2 || F2 | F2 E2 F2 ^G2 | A3 B c2 || c2 | e2 c2 A2 c2 | %11
 d2 B2[Q:1/4=45] !fermata!A2 ||[Q:1/4=90] A2 | B2 d2 c2 F2 | G2 B2 E2 || F2 | G3 A F2 D2 | %17
 F2 E2[Q:1/4=45] !fermata!D2 |] %18
V:2
 A,2 | A,2 D2 E2 G2 | F2 D2 C2 || D2 | D2 E2 D2 D2 | ^G,2 C2 A,2 || C2 | D2 A,2 D2 D2 | C2 F2 E2 || %9
 E2 | E2 E2 C2 E2 | F2 D2 C2 || D2 | D2 D2 E2 F2 | E3 D C2 || D2 | E2 E2 D2 D2 | D2 C2 D2 |] %18
V:3
 F,2 | F,2 B,2 C2 D2 | D2 A,2 A,2 || A,2 | D2 A,2 A,2 ^G,F, | F,2 ^E,2 F,2 || A,2 | %7
 A,2 A,2 A,2 B,2 | A,2 A,2 A,2 || A,2 | B,2 ^G,2 A,2 A,2 | A,2 ^G,2 A,2 || A,2 | D2 D2 A,2 C2 | %14
 B,2 B,2 A,2 || A,2 | B,2 A,2 A,2 A,2 | A,3 G, F,2 |] %18
V:4
 D,2 | D,2 B,,2 A,,2 G,,2 | D,2 F,2 A,2 || F,2 | B,,2 C,2 C,2 B,,2 | C,2 C,2 F,,2 || F,2 | %7
 D,2 C,2 D,2 B,,2 | F,2 D,2 A,2 || A,2 | ^G,2 E,2 F,2 C,2 | B,,2 E,2 !fermata!A,,2 || F,2 | %13
 G,2 B,2 A,2 A,2 | G,2 G,2 G,2 || F,2 | E,2 C,2 D,2 F,,2 | A,,2 A,,2 !fermata!D,2 |] %18

